public/logos/ED.svg

<?xml version="1.0" encoding="UTF-8"?>
<svg xmlns="http://www.w3.org/2000/svg" xmlns:xlink="http://www.w3.org/1999/xlink" width="176pt" height="49.79pt" viewBox="0 0 176 49.79" version="1.1">
<defs>
<clipPath id="clip1">
  <path d="M 82 24 L 101 24 L 101 49.789062 L 82 49.789062 Z M 82 24 "/>
</clipPath>
</defs>
<g id="surface1">
<path style=" stroke:none;fill-rule:nonzero;fill:rgb(22.154236%,20.736694%,21.089172%);fill-opacity:1;" d="M 61.304688 27.636719 C 61.304688 29.078125 61.304688 30.367188 61.304688 31.757812 C 60.171875 31.902344 59.054688 31.8125 57.945312 31.828125 C 56.820312 31.84375 55.691406 31.832031 54.566406 31.832031 C 53.445312 31.832031 52.320312 31.832031 51.210938 31.832031 C 51.023438 32.617188 50.976562 36.679688 51.132812 38.378906 C 52.371094 38.382812 53.625 38.386719 54.878906 38.390625 C 56.109375 38.394531 57.339844 38.390625 58.570312 38.390625 C 59.828125 38.390625 61.085938 38.390625 62.390625 38.390625 C 62.390625 39.8125 62.390625 41.136719 62.390625 42.457031 C 61.34375 42.675781 47.695312 42.621094 46.683594 42.386719 C 46.683594 33.933594 46.683594 25.46875 46.683594 17.007812 C 47.539062 16.835938 59.503906 16.765625 62.066406 16.917969 C 62.261719 17.613281 62.300781 19.664062 62.125 21.074219 C 60.324219 21.074219 58.507812 21.074219 56.691406 21.074219 C 54.863281 21.074219 53.035156 21.074219 51.21875 21.074219 C 51.015625 21.855469 50.960938 25.472656 51.113281 27.554688 C 51.925781 27.726562 52.765625 27.613281 53.59375 27.628906 C 54.4375 27.652344 55.28125 27.636719 56.128906 27.636719 C 56.972656 27.636719 57.816406 27.636719 58.660156 27.636719 C 59.5 27.636719 60.339844 27.636719 61.304688 27.636719 "/>
<path style=" stroke:none;fill-rule:nonzero;fill:rgb(21.984863%,20.565796%,20.918274%);fill-opacity:1;" d="M 16.03125 32.691406 C 14.71875 29.28125 13.4375 25.953125 12.058594 22.378906 C 11.539062 23.742188 11.125 24.847656 10.699219 25.945312 C 10.257812 27.089844 9.773438 28.214844 9.363281 29.367188 C 8.972656 30.457031 8.417969 31.5 8.195312 32.691406 C 10.84375 32.691406 13.386719 32.691406 16.03125 32.691406 Z M 9.835938 16.878906 C 10.183594 16.878906 10.5 16.878906 10.816406 16.878906 C 11.9375 16.878906 13.0625 16.878906 14.296875 16.878906 C 17.601562 25.382812 20.910156 33.894531 24.273438 42.550781 C 22.710938 42.59375 21.292969 42.664062 19.800781 42.421875 C 19.082031 40.570312 18.355469 38.714844 17.617188 36.820312 C 13.957031 36.820312 10.308594 36.820312 6.5625 36.820312 C 5.691406 38.597656 5.121094 40.554688 4.300781 42.425781 C 2.863281 42.742188 1.441406 42.511719 0 42.597656 C 0.140625 41.660156 5.558594 27.53125 9.835938 16.878906 "/>
<g clip-path="url(#clip1)" clip-rule="nonzero">
<path style=" stroke:none;fill-rule:nonzero;fill:rgb(21.984863%,20.565796%,20.918274%);fill-opacity:1;" d="M 86.578125 31.238281 C 86.578125 32.789062 86.585938 34.402344 86.574219 36.015625 C 86.570312 36.519531 86.800781 36.894531 87.125 37.226562 C 88.574219 38.710938 90.335938 39.144531 92.328125 38.695312 C 93.921875 38.339844 95.039062 37.363281 95.5625 35.835938 C 96.058594 34.375 96.042969 32.871094 95.390625 31.425781 C 95.117188 30.8125 94.714844 30.304688 94.195312 29.855469 C 92.417969 28.332031 88.277344 28.347656 86.578125 31.238281 Z M 82.363281 25.199219 C 82.515625 25.179688 82.683594 25.136719 82.851562 25.136719 C 83.96875 25.128906 85.085938 25.132812 86.300781 25.132812 C 86.300781 25.867188 86.300781 26.515625 86.300781 27.28125 C 86.53125 27.089844 86.644531 27.011719 86.742188 26.914062 C 88.226562 25.457031 90.023438 24.847656 92.085938 24.839844 C 95.007812 24.828125 97.21875 26.113281 98.824219 28.472656 C 99.683594 29.730469 100.121094 31.15625 100.296875 32.695312 C 100.589844 35.226562 100.054688 37.535156 98.507812 39.523438 C 96.390625 42.246094 93.585938 43.347656 90.136719 42.703125 C 89.042969 42.5 88.054688 42.113281 87.144531 41.492188 C 87 41.394531 86.839844 41.324219 86.566406 41.183594 C 86.566406 44.09375 86.566406 46.917969 86.566406 49.789062 C 85.113281 49.789062 83.757812 49.789062 82.40625 49.789062 C 82.234375 48.992188 82.191406 26.472656 82.363281 25.199219 "/>
</g>
<path style=" stroke:none;fill-rule:nonzero;fill:rgb(21.984863%,20.565796%,20.918274%);fill-opacity:1;" d="M 154.503906 32.226562 C 154.257812 30.242188 152.578125 28.816406 150.5625 28.703125 C 148.238281 28.570312 146.042969 30.164062 145.8125 32.226562 C 148.679688 32.226562 151.550781 32.226562 154.503906 32.226562 Z M 158.703125 35.453125 C 154.40625 35.453125 150.167969 35.453125 145.839844 35.453125 C 146.023438 36.582031 146.652344 37.304688 147.425781 37.902344 C 148.214844 38.515625 149.121094 38.839844 150.144531 38.894531 C 151.992188 38.988281 153.703125 38.648438 155.214844 37.523438 C 155.324219 37.441406 155.453125 37.390625 155.65625 37.28125 C 156.390625 38.222656 157.117188 39.148438 157.886719 40.125 C 157.671875 40.492188 157.34375 40.734375 157 40.96875 C 155.21875 42.183594 153.277344 42.871094 151.09375 42.875 C 149.820312 42.878906 148.574219 42.796875 147.355469 42.410156 C 143.800781 41.277344 141.527344 38.09375 141.398438 34.4375 C 141.335938 32.722656 141.550781 31.066406 142.375 29.550781 C 143.972656 26.609375 146.40625 24.953125 149.808594 24.855469 C 150.9375 24.820312 152.046875 24.882812 153.132812 25.25 C 155.085938 25.910156 156.5625 27.125 157.554688 28.925781 C 158.652344 30.914062 159.0625 33.191406 158.703125 35.453125 "/>
<path style=" stroke:none;fill-rule:nonzero;fill:rgb(21.984863%,20.565796%,20.918274%);fill-opacity:1;" d="M 119.621094 28.847656 C 117.171875 28.890625 115.730469 29.714844 114.90625 31.496094 C 114.242188 32.929688 114.238281 34.382812 114.777344 35.886719 C 115.660156 38.351562 118.582031 39.554688 121.023438 38.46875 C 122.683594 37.734375 123.476562 36.355469 123.800781 34.632812 C 124.265625 32.175781 122.546875 28.691406 119.621094 28.847656 Z M 119.1875 24.835938 C 122.769531 24.910156 125.546875 26.421875 127.269531 29.601562 C 129.53125 33.785156 128.148438 38.976562 123.96875 41.546875 C 120.230469 43.84375 115.289062 43.195312 112.3125 39.964844 C 110.621094 38.128906 109.847656 35.925781 109.949219 33.417969 C 110.054688 30.8125 111.113281 28.664062 113.070312 26.992188 C 114.8125 25.503906 116.859375 24.753906 119.1875 24.835938 "/>
<path style=" stroke:none;fill-rule:nonzero;fill:rgb(21.984863%,20.565796%,20.918274%);fill-opacity:1;" d="M 80.964844 42.429688 C 79.789062 42.667969 76.628906 42.625 75.636719 42.382812 C 74.382812 40.535156 73.101562 38.652344 71.742188 36.652344 C 70.355469 38.613281 69.027344 40.492188 67.714844 42.347656 C 66.707031 42.632812 63.78125 42.683594 62.703125 42.414062 C 64.890625 39.421875 67.054688 36.464844 69.25 33.464844 C 67.191406 30.714844 65.152344 27.996094 63.042969 25.183594 C 64.886719 25.183594 66.59375 25.183594 68.367188 25.183594 C 69.535156 26.898438 70.714844 28.628906 71.957031 30.445312 C 73.238281 28.625 74.460938 26.886719 75.679688 25.15625 C 77.304688 25.15625 78.882812 25.15625 80.613281 25.15625 C 79.605469 26.6875 78.539062 28.046875 77.523438 29.4375 C 76.511719 30.828125 75.492188 32.210938 74.417969 33.675781 C 76.578125 36.5625 78.734375 39.445312 80.964844 42.429688 "/>
<path style=" stroke:none;fill-rule:nonzero;fill:rgb(22.154236%,20.736694%,21.089172%);fill-opacity:1;" d="M 103.019531 15.65625 C 104.488281 15.65625 105.882812 15.65625 107.328125 15.65625 C 107.328125 24.609375 107.328125 33.523438 107.328125 42.554688 C 106.585938 42.566406 105.894531 42.578125 105.203125 42.585938 C 104.503906 42.589844 103.808594 42.585938 103.128906 42.585938 C 102.925781 41.644531 102.839844 18.882812 103.019531 15.65625 "/>
<path style=" stroke:none;fill-rule:nonzero;fill:rgb(22.154236%,20.736694%,21.089172%);fill-opacity:1;" d="M 130.980469 25.179688 C 132.308594 25.179688 133.628906 25.179688 135.042969 25.179688 C 135.042969 25.949219 135.042969 26.710938 135.042969 27.675781 C 135.945312 26.589844 136.734375 25.695312 137.917969 25.273438 C 139.085938 24.859375 140.230469 24.824219 141.472656 25.273438 C 141.375 26.722656 140.882812 28.070312 140.65625 29.527344 C 140.386719 29.5 140.1875 29.464844 139.992188 29.457031 C 139.15625 29.425781 138.300781 29.285156 137.484375 29.402344 C 136.550781 29.539062 135.859375 30.183594 135.300781 31.070312 C 135.300781 32.925781 135.300781 34.855469 135.300781 36.789062 C 135.300781 38.679688 135.300781 40.574219 135.300781 42.527344 C 133.832031 42.527344 132.441406 42.527344 131.019531 42.527344 C 131.019531 42.527344 130.992188 42.507812 130.96875 42.480469 C 130.945312 42.453125 130.917969 42.425781 130.917969 42.394531 C 130.90625 36.769531 130.894531 31.144531 130.890625 25.519531 C 130.890625 25.421875 130.9375 25.324219 130.980469 25.179688 "/>
<path style=" stroke:none;fill-rule:nonzero;fill:rgb(21.984863%,20.565796%,20.918274%);fill-opacity:1;" d="M 44.542969 25.300781 C 44.230469 26.730469 43.933594 28.117188 43.640625 29.472656 C 42.710938 29.417969 41.851562 29.332031 40.988281 29.328125 C 40.046875 29.320312 39.324219 29.839844 38.703125 30.480469 C 38.296875 30.902344 38.222656 31.460938 38.226562 32.050781 C 38.242188 35.144531 38.234375 38.242188 38.230469 41.335938 C 38.230469 41.679688 38.230469 42.027344 38.230469 42.339844 C 37.464844 42.628906 35.234375 42.6875 33.976562 42.464844 C 33.976562 36.726562 33.976562 30.980469 33.976562 25.183594 C 35.3125 25.183594 36.597656 25.183594 37.96875 25.183594 C 37.96875 25.980469 37.96875 26.742188 37.96875 27.75 C 39.703125 25.375 41.746094 24.421875 44.542969 25.300781 "/>
<path style=" stroke:none;fill-rule:nonzero;fill:rgb(22.322083%,20.909119%,21.260071%);fill-opacity:1;" d="M 30.003906 42.535156 C 28.585938 42.535156 27.226562 42.535156 25.871094 42.535156 C 25.839844 42.507812 25.804688 42.492188 25.785156 42.464844 C 25.761719 42.4375 25.742188 42.40625 25.738281 42.375 C 25.722656 42.238281 25.699219 42.097656 25.699219 41.957031 C 25.699219 36.402344 25.699219 30.847656 25.699219 25.308594 C 26.472656 25.085938 29.046875 25.066406 29.976562 25.261719 C 30.140625 26.027344 30.179688 41.273438 30.003906 42.535156 "/>
<path style=" stroke:none;fill-rule:nonzero;fill:rgb(17.687988%,20.158386%,43.415833%);fill-opacity:1;" d="M 158.78125 0.128906 C 158.101562 3.539062 157.421875 6.953125 156.726562 10.4375 C 151.890625 12.515625 147.046875 14.59375 142.234375 16.660156 C 147.730469 11.167969 153.230469 5.671875 158.78125 0.128906 "/>
<path style=" stroke:none;fill-rule:nonzero;fill:rgb(17.687988%,20.158386%,43.415833%);fill-opacity:1;" d="M 175.480469 16.648438 C 170.691406 14.597656 165.910156 12.546875 161.019531 10.453125 C 160.328125 7.019531 159.632812 3.550781 158.941406 0.101562 C 164.464844 5.628906 169.96875 11.136719 175.480469 16.648438 "/>
<path style=" stroke:none;fill-rule:nonzero;fill:rgb(94.883728%,73.922729%,15.426636%);fill-opacity:1;" d="M 162.109375 0.203125 C 162.417969 0.25 162.734375 0.265625 163.03125 0.347656 C 166.144531 1.210938 169.253906 2.082031 172.359375 2.953125 C 173.425781 3.253906 174.488281 3.554688 175.546875 3.867188 C 175.710938 3.914062 175.851562 4.03125 176 4.117188 C 176 5.472656 176 6.796875 176 8.207031 C 175.410156 7.941406 174.855469 7.765625 174.382812 7.464844 C 172.523438 6.28125 170.605469 5.214844 168.65625 4.183594 C 166.785156 3.191406 165.003906 2.03125 163.167969 0.96875 C 162.785156 0.746094 162.28125 0.710938 162.117188 0.199219 L 162.109375 0.203125 "/>
<path style=" stroke:none;fill-rule:nonzero;fill:rgb(94.883728%,73.922729%,15.426636%);fill-opacity:1;" d="M 155.949219 0.191406 C 155.496094 0.429688 155.03125 0.65625 154.589844 0.910156 C 154.167969 1.152344 153.773438 1.433594 153.355469 1.675781 C 152.753906 2.019531 152.136719 2.332031 151.53125 2.675781 C 149.875 3.625 148.222656 4.574219 146.574219 5.539062 C 145.285156 6.296875 144.015625 7.085938 142.722656 7.839844 C 142.507812 7.964844 142.226562 7.976562 141.894531 8.058594 C 141.894531 6.679688 141.894531 5.429688 141.894531 4.046875 C 143.382812 3.589844 144.921875 3.101562 146.472656 2.652344 C 148.0625 2.191406 149.675781 1.8125 151.257812 1.3125 C 152.78125 0.832031 154.335938 0.4375 155.875 0 C 155.898438 0.0664062 155.925781 0.128906 155.949219 0.191406 "/>
<path style=" stroke:none;fill-rule:nonzero;fill:rgb(22.154236%,20.736694%,21.089172%);fill-opacity:1;" d="M 30.992188 19.585938 C 30.972656 21.054688 29.886719 22.699219 27.945312 22.734375 C 26.125 22.765625 24.742188 21.496094 24.753906 19.542969 C 24.761719 17.648438 26.265625 16.542969 27.773438 16.492188 C 29.417969 16.4375 30.902344 17.757812 30.992188 19.585938 "/>
<path style=" stroke:none;fill-rule:nonzero;fill:rgb(68.681335%,68.110657%,68.252563%);fill-opacity:1;" d="M 162.117188 0.199219 C 162 0.179688 161.882812 0.164062 161.769531 0.148438 C 161.785156 0.105469 161.804688 0.0625 161.820312 0.0195312 C 161.917969 0.0820312 162.015625 0.144531 162.109375 0.203125 L 162.117188 0.199219 "/>
</g>
</svg>

<svg xmlns="http://www.w3.org/2000/svg" width="176pt" height="66.387" viewBox="0 0 176 49.79"><defs><clipPath id="a"><path d="M82 24h19v25.79H82Zm0 0"/></clipPath></defs><path d="M61.305 27.637v4.12c-1.133.145-2.25.055-3.36.071-1.125.016-2.254.004-3.379.004h-3.355c-.188.785-.234 4.848-.078 6.547l3.746.012c1.23.004 2.46 0 3.691 0h3.82v4.066c-1.046.219-14.695.164-15.706-.07v-25.38c.855-.171 12.82-.241 15.382-.089.196.695.235 2.746.059 4.156H51.219c-.203.781-.258 4.399-.106 6.48.813.173 1.653.06 2.48.075.844.023 1.688.008 2.536.008h5.176" style="stroke:none;fill-rule:nonzero;fill:#383536;fill-opacity:1"/><path d="M16.031 32.691c-1.312-3.41-2.593-6.738-3.972-10.312-.52 1.363-.934 2.469-1.36 3.566-.441 1.145-.926 2.27-1.336 3.422-.39 1.09-.945 2.133-1.168 3.324zM9.836 16.88h4.46l9.977 25.672c-1.562.043-2.98.113-4.472-.13-.719-1.85-1.446-3.706-2.184-5.6H6.563C5.69 38.597 5.12 40.554 4.3 42.425c-1.438.316-2.86.086-4.301.172.14-.938 5.559-15.067 9.836-25.72" style="stroke:none;fill-rule:nonzero;fill:#383435;fill-opacity:1"/><g clip-path="url(#a)"><path d="M86.578 31.238c0 1.551.008 3.164-.004 4.778-.004.504.227.879.551 1.21 1.45 1.485 3.21 1.919 5.203 1.47 1.594-.356 2.711-1.333 3.234-2.86.497-1.461.481-2.965-.171-4.41-.274-.613-.676-1.121-1.196-1.57-1.777-1.524-5.918-1.508-7.617 1.382M82.363 25.2c.153-.02.32-.062.489-.062 1.117-.008 2.234-.004 3.449-.004v2.148c.23-.191.344-.27.441-.367 1.485-1.457 3.281-2.066 5.344-2.074 2.922-.012 5.133 1.273 6.738 3.633.86 1.257 1.297 2.683 1.473 4.222.293 2.532-.242 4.84-1.79 6.828-2.116 2.723-4.921 3.825-8.37 3.18-1.094-.203-2.082-.59-2.992-1.21-.145-.098-.305-.169-.579-.31v8.606h-4.16c-.172-.797-.215-23.316-.043-24.59" style="stroke:none;fill-rule:nonzero;fill:#383435;fill-opacity:1"/></g><path d="M154.504 32.227c-.246-1.985-1.926-3.41-3.941-3.524-2.325-.133-4.52 1.461-4.75 3.524zm4.2 3.226H145.84c.183 1.129.812 1.852 1.586 2.45.789.613 1.695.937 2.719.992 1.847.093 3.558-.247 5.07-1.372.11-.082.238-.132.441-.242.735.942 1.461 1.867 2.23 2.844-.214.367-.542.61-.886.844-1.781 1.215-3.723 1.902-5.906 1.906-1.274.004-2.52-.078-3.739-.465-3.554-1.133-5.828-4.316-5.957-7.972-.062-1.715.153-3.372.977-4.887 1.598-2.942 4.031-4.598 7.434-4.696 1.129-.035 2.238.028 3.324.395 1.953.66 3.43 1.875 4.422 3.676a10.15 10.15 0 0 1 1.148 6.527M119.621 28.848c-2.45.043-3.89.867-4.715 2.648-.664 1.434-.668 2.887-.129 4.39.883 2.466 3.805 3.669 6.246 2.583 1.66-.735 2.454-2.114 2.778-3.836.465-2.457-1.254-5.942-4.18-5.785m-.433-4.012c3.582.074 6.359 1.586 8.082 4.766 2.261 4.183.878 9.375-3.301 11.945-3.739 2.297-8.68 1.648-11.656-1.582-1.692-1.836-2.465-4.04-2.364-6.547.106-2.605 1.164-4.754 3.121-6.426 1.743-1.488 3.79-2.238 6.118-2.156M80.965 42.43c-1.176.238-4.336.195-5.328-.047-1.254-1.848-2.535-3.73-3.895-5.73l-4.027 5.695c-1.008.285-3.934.336-5.012.066l6.547-8.95c-2.059-2.75-4.098-5.468-6.207-8.28h5.324c1.168 1.714 2.348 3.445 3.59 5.261l3.723-5.289h4.933c-1.008 1.532-2.074 2.89-3.09 4.282-1.011 1.39-2.03 2.773-3.105 4.238 2.16 2.886 4.316 5.77 6.547 8.754" style="stroke:none;fill-rule:nonzero;fill:#383435;fill-opacity:1"/><path d="M103.02 15.656h4.308v26.899c-.742.011-1.433.023-2.125.03-.7.005-1.394 0-2.074 0-.203-.94-.29-23.702-.11-26.929M130.98 25.18h4.063v2.496c.902-1.086 1.691-1.98 2.875-2.403 1.168-.414 2.312-.449 3.555 0-.098 1.45-.59 2.797-.817 4.254-.27-.027-.469-.062-.664-.07-.836-.031-1.691-.172-2.508-.055-.933.137-1.625.782-2.183 1.668v11.457h-4.281s-.028-.02-.051-.047c-.024-.027-.051-.054-.051-.085q-.02-8.437-.027-16.875c0-.098.047-.196.09-.34" style="stroke:none;fill-rule:nonzero;fill:#383536;fill-opacity:1"/><path d="M44.543 25.3c-.313 1.43-.61 2.817-.902 4.173-.93-.055-1.79-.141-2.653-.145-.941-.008-1.664.512-2.285 1.152-.406.422-.48.98-.476 1.57.015 3.095.007 6.192.003 9.286v1.004c-.765.289-2.996.347-4.253.125V25.184h3.992v2.566c1.734-2.375 3.777-3.328 6.574-2.45" style="stroke:none;fill-rule:nonzero;fill:#383435;fill-opacity:1"/><path d="M30.004 42.535H25.87c-.031-.027-.066-.043-.086-.07a.2.2 0 0 1-.047-.09c-.015-.137-.039-.277-.039-.418V25.309c.774-.223 3.348-.243 4.278-.047.164.765.203 16.011.027 17.273" style="stroke:none;fill-rule:nonzero;fill:#393536;fill-opacity:1"/><path d="m158.781.129-2.054 10.308c-4.836 2.079-9.68 4.157-14.493 6.223C147.73 11.168 153.23 5.672 158.781.13M175.48 16.648c-4.789-2.05-9.57-4.101-14.46-6.195-.692-3.433-1.387-6.902-2.079-10.351 5.524 5.527 11.028 11.035 16.54 16.546" style="stroke:none;fill-rule:nonzero;fill:#2d336f;fill-opacity:1"/><path d="M162.11.203c.308.047.624.063.921.145 3.114.863 6.223 1.734 9.328 2.605q1.6.448 3.188.914c.164.047.305.164.453.25v4.09c-.59-.266-1.145-.441-1.617-.742-1.86-1.184-3.778-2.25-5.727-3.281-1.87-.993-3.652-2.153-5.488-3.215-.383-.223-.887-.258-1.05-.77zM155.95.191c-.454.239-.919.465-1.36.72-.422.241-.817.523-1.235.765-.601.344-1.218.656-1.824 1-1.656.949-3.308 1.898-4.957 2.863-1.289.758-2.558 1.547-3.851 2.3-.215.126-.496.138-.828.22V4.047c1.488-.457 3.027-.945 4.578-1.395 1.59-.46 3.203-.84 4.785-1.34 1.523-.48 3.078-.874 4.617-1.312q.036.099.074.191" style="stroke:none;fill-rule:nonzero;fill:#f2bd27;fill-opacity:1"/><path d="M30.992 19.586c-.02 1.469-1.105 3.113-3.047 3.148-1.82.032-3.203-1.238-3.191-3.191.008-1.895 1.512-3 3.02-3.05 1.644-.055 3.128 1.265 3.218 3.093" style="stroke:none;fill-rule:nonzero;fill:#383536;fill-opacity:1"/><path d="M162.117.2q-.176-.029-.347-.052c.015-.043.035-.085.05-.128q.148.095.29.183z" style="stroke:none;fill-rule:nonzero;fill:#afaeae;fill-opacity:1"/></svg>
